X:1
T:Make Haste!
T:Benjamin Carl Unseld
T:Make Haste!
T:Public Domain
T:Public Domain
C:Benjamin Carl Unseld
Z:Public Domain
%%score ( 1 2 ) ( 3 4 )
L:1/8
M:4/4
K:Eb
V:1 treble 
V:2 treble 
V:3 bass 
V:4 bass 
V:1
 (EF) | [EG]2 [EG][EG] [GB]2 [FA][EG] | ([EG][DF]) [DF]>[^C=E] [DF]2 ([DF][_EG]) | %3
w: 1.~A *|ga- thers dark o’er the foam|crest- * ed deep, And souls *|
w: 2.~No *|beam- ing star in the dark-|ness * they see, No bells *|
w: 3.~A *|soft- ly breaks, and their per-|il * is o’er; They hear, *|
 [FA]2 [FA][FA] ([FA][Ac]) [GB]>[FA] | [EG]6 ([EG][FA]) | [GB]2 [GB]>[GB] ([GB][EG])[FA][GB] | %6
w: on the bil- lows * are tossed;|Then forth *|let us go, with * a mes-|
w: from the har- bor * they hear;|Their frail, *|shat- tered bark, still * is drift-|
w: and they an- swer * our call;|Our boat *|hur- ries on with * the Pi-|
 [Ac]2 [Ac]>[Ac] (ce)(dc) | [GB]2 [EG][GB] ([GB][FA]) [EG]>[DF] | E6 ||"^Refrain" [EB]2 | %10
w: sage of hope, Speed * on, *|ves- sel be lost. * * *|||
w: ing a- far, Speed * on, *|mes- sage of cheer. * Make haste,|make|Make|
w: lot on board— In * Him *|ref- uge for all. * * *|||
 [Ec]6 [Ee]2 | [EB]6 [EB]2 | [GB]2 [EG][FA] [GB]2 [FA]>[EG] | [DF]6 (EF) | %14
w: ||||
w: haste to|the res-|cue, a- way! Speed on, quick-|ly on, *|
w: ||||
 [EG]2 [EG]>[EG] ([EG][GB])[FA][EG] | ([EG][DF]) [DF]>[^C=E] [DF]2 ([_EG][FA]) | %16
w: ||
w: a mes- sage of * hope— No|time * for a mo- ment’s *|
w: ||
 (Be)[Ac][FA] [EG]2 [DF]>[DF] | E6 |] %18
w: ||
w: de- * lay. * * * *||
w: ||
V:2
 E2 | x8 | x8 | x8 | x8 | x8 | x4 A2 A2 | x8 | E6 || x2 | x8 | x8 | x8 | x6 E2 | x8 | x8 | G2 x6 | %17
w: storm||||||lest their|||||||||||
w: bright||||||with a||haste,|||||with||||
w: light||||||is a|||||||||||
 E6 |] %18
w: |
w: |
w: |
V:3
 (G,A,) | [E,B,]2 [E,B,][E,B,] [E,E]2 [E,B,][E,B,] | [B,,B,]2 [B,,B,]>[B,,B,] [B,,B,]2 [B,,B,]2 | %3
w: ~ *|~ ~ ~ ~ ~ ~|~ ~ ~ ~ ~|
 [B,,B,]2 [B,,B,][B,,B,] [B,,B,]2 [C,B,]>[D,B,] | [E,B,]6 [E,B,]2 | %5
w: ~ ~ ~ ~ ~ ~|~ ~|
 [E,E]2 [E,E]>[E,E] [E,E]2 [E,E][E,E] | [A,E]2 [A,E]>[A,E] (EC)(DE) | %7
w: ~ ~ ~ ~ ~ ~|~ ~ ~ ~ * ~ *|
 [E,E]2 [E,B,][E,B,] [B,,B,]2 [B,,B,]>[B,,A,] | [E,G,]6 || [E,G,]2 | %10
w: ~ ~ ~ ~ ~ ~|Make|haste,|
 [A,,A,]2 [A,,A,]2 [A,,A,]2 [C,A,]2 | [E,G,]2 [E,G,]2 [E,G,]2 [E,G,]2 | %12
w: ~ ~ make haste,||
 [E,B,]2 [E,B,][E,B,] [E,E]2 [D,B,]>[E,B,] | [B,,B,]6 (G,A,) | %14
w: ||
 [E,B,]2 [E,B,]>[E,B,] [E,B,]2 [D,B,][E,B,] | [B,,B,]2 [B,,B,]>[B,,B,] [B,,B,]2 [E,B,]2 | %16
w: ||
 (EB,)[A,,E][A,,C] [B,,B,]2 [B,,A,]>[B,,A,] | [E,G,]6 |] %18
w: ||
V:4
 E,2 | x8 | x8 | x8 | x8 | x8 | x4 A,2 A,2 | x8 | x6 || x2 | x8 | x8 | x8 | x6 E,2 | x8 | x8 | %16
w: ~||||||~ ~||||||||||
 E,2 x6 | x6 |] %18
w: ||

